_includes/icons/color-commercial.svg

<svg fill="#666" height="50" viewBox="0 0 48 48" width="50" xmlns="http://www.w3.org/2000/svg"><path d="m17.398438 33h-2.398438v-4h4l.398438 1.5c.300781 1.300781-.699219 2.5-2 2.5z" fill="#90caf9"/><path d="m37 36s-11.800781-7-18-7v-14c5.800781 0 18-7 18-7z" fill="#90caf9"/><g fill="#283593"><path d="m14 22c0 2.761719-2.238281 5-5 5s-5-2.238281-5-5 2.238281-5 5-5 5 2.238281 5 5z"/><path d="m40 19h-3v6h3c1.699219 0 3-1.300781 3-3s-1.300781-3-3-3z"/><path d="m18.601563 41.199219c-.902344.601562-2.5 1.199219-4.601563 1.402344-.601562.097656-1.199219-.300782-1.398437-1l-4.402344-13.703125s8.800781-6.199219 8.800781 1.101562c0 5.5 1.5 8.398438 2.199219 9.5.5.699219.5 1.601563 0 2.300781-.199219.199219-.398438.300782-.597656.398438z"/></g><path d="m9 29h10v-14h-10c-1.101562 0-2 .898438-2 2v10c0 1.101563.898438 2 2 2z" fill="#3f51b5"/><path d="m38 38c-1.101562 0-2-.898437-2-2v-28c0-1.101562.898438-2 2-2 1.101563 0 2 .898438 2 2v28c0 1.101563-.898437 2-2 2z" fill="#42a5f5"/></svg>

<svg xmlns="http://www.w3.org/2000/svg" viewBox="0 0 48 48" width="50" height="50" fill="#666"><path d="M 17.398438 33 L 15 33 L 15 29 L 19 29 L 19.398438 30.5 C 19.699219 31.800781 18.699219 33 17.398438 33 Z" fill="#90caf9"/><path d="M 37 36 C 37 36 25.199219 29 19 29 L 19 15 C 24.800781 15 37 8 37 8 Z" fill="#90caf9"/><path d="M 14 22 C 14 24.761719 11.761719 27 9 27 C 6.238281 27 4 24.761719 4 22 C 4 19.238281 6.238281 17 9 17 C 11.761719 17 14 19.238281 14 22 Z" fill="#283593"/><path d="M 40 19 L 37 19 L 37 25 L 40 25 C 41.699219 25 43 23.699219 43 22 C 43 20.300781 41.699219 19 40 19 Z" fill="#283593"/><path d="M 18.601563 41.199219 C 17.699219 41.800781 16.101563 42.398438 14 42.601563 C 13.398438 42.699219 12.800781 42.300781 12.601563 41.601563 L 8.199219 27.898438 C 8.199219 27.898438 17 21.699219 17 29 C 17 34.5 18.5 37.398438 19.199219 38.5 C 19.699219 39.199219 19.699219 40.101563 19.199219 40.800781 C 19 41 18.800781 41.101563 18.601563 41.199219 Z" fill="#283593"/><path d="M 9 29 L 19 29 L 19 15 L 9 15 C 7.898438 15 7 15.898438 7 17 L 7 27 C 7 28.101563 7.898438 29 9 29 Z" fill="#3f51b5"/><path d="M 38 38 C 36.898438 38 36 37.101563 36 36 L 36 8 C 36 6.898438 36.898438 6 38 6 C 39.101563 6 40 6.898438 40 8 L 40 36 C 40 37.101563 39.101563 38 38 38 Z" fill="#42a5f5"/></svg>
